X: 16
T:Tyrolese() Song of Liberty. ST.16
T:New Tyrolean Waltz,aka. ST.16
M:3/4
L:1/8
Q:100
S:Annonymous Staffordshire MS, Early 19thC.
R:Air
O:England
A:Staffordshire
N:First word of title is indistinct.
Z:vmp.Tim Willets
K:G
D2|G>G B>B d>d|d>bg2 ((3Bdg) |a2c'z ((3Acf) |g2bz "qu"D2|!
G>G B>B d>d|d>bg2 ((3Bdg) |a2c' z ((3Acf) |g2z2|]
